X: 1
T: All Those Endearing Young Charms
R: waltz
M: 3/4
L: 1/8
K: Dmaj
F/E/ | "D"D>ED DFA | "G"GBd d2c/B/|
"em"A>GF "A"E>DE | "D"F3-F2 F/E/ | "D"D>ED DFA |
"G"GBd "E7"d2c/B/ | "D"AdF "A"E>DE | "D"D3-D2A/G/ |
"D"FAd d2A | "G"BGd d2c/B/ |
"D"A>GF "A"E>DE | "D"F3-F2F/E/ | "D"D>ED DFA |
"G"GBd "E7"d2c/B/ | "D"AdF "A7"E>DE | "D"D3-D2 |]


Tune 6788	Setting 26196

